client/public/img/game/normal/buildings/container_ceiling_2.svg

<?xml version="1.0" encoding="UTF-8" standalone="no"?>
<!-- Created with Inkscape (http://www.inkscape.org/) -->

<svg
   width="281.18002"
   height="279.65399"
   viewBox="0 0 74.395546 73.991786"
   version="1.1"
   id="svg49750"
   xmlns="http://www.w3.org/2000/svg"
   xmlns:svg="http://www.w3.org/2000/svg">
  <defs
     id="defs49747" />
  <g
     id="layer1"
     transform="translate(0,0.35079124)">
    <g
       id="g1"
       transform="matrix(1,0,0,-1.0000026,4.4125823e-5,74.078649)">
      <path
         id="rect1049-9-7-5-1-7-8"
         style="fill:#a1a1a1;fill-opacity:1;stroke-width:2.15008;paint-order:markers stroke fill;stop-color:#000000"
         d="M 0,74.429247 V -73.554207 H 74.395459 V 74.429247 H 63.075735 L 59.394306,68.079283 H 15.001151 l -3.681429,6.349964 z" />
      <path
         id="rect1049-9-7-2-9-5-4-02"
         style="fill:#e0e0e0;fill-opacity:1;stroke-width:1.97626;paint-order:markers stroke fill;stop-color:#000000"
         d="m 3.3512124,70.758698 4.3e-6,-140.642328 H 71.044241 l 8.8e-5,140.642328 H 66.955987 L 62.722786,64.408734 H 11.672673 l -4.2333835,6.349964 z" />
      <path
         id="rect24996-9-4-4-8"
         style="fill:#ffffff;stroke-width:2.96972;paint-order:markers stroke fill;stop-color:#000000"
         d="M 3.3511837,59.492461 H 71.044335 V 48.755391 H 3.3511837 Z" />
      <path
         id="rect4123"
         style="fill:#ffffff;stroke-width:2.96972;paint-order:markers stroke fill;stop-color:#000000"
         d="M 3.3511837,38.018324 H 71.044335 V 27.281254 H 3.3511837 Z" />
      <path
         id="rect4125"
         style="fill:#ffffff;stroke-width:2.96972;paint-order:markers stroke fill;stop-color:#000000"
         d="M 3.3511837,16.544122 H 71.044335 V 5.8069954 H 3.3511837 Z" />
      <path
         id="rect4127"
         style="fill:#ffffff;stroke-width:2.96972;paint-order:markers stroke fill;stop-color:#000000"
         d="M 3.3511837,-4.9301271 H 71.044335 V -15.667253 H 3.3511837 Z" />
      <path
         id="rect4129"
         style="fill:#ffffff;stroke-width:2.96972;paint-order:markers stroke fill;stop-color:#000000"
         d="M 3.3511837,-26.404379 H 71.044335 V -37.141508 H 3.3511837 Z" />
      <path
         id="rect4131"
         style="fill:#ffffff;stroke-width:2.96972;paint-order:markers stroke fill;stop-color:#000000"
         d="M 3.3511837,-47.878639 H 71.044335 V -58.615768 H 3.3511837 Z" />
    </g>
  </g>
</svg>

<svg xmlns="http://www.w3.org/2000/svg" width="281.18" height="279.654" viewBox="0 0 74.396 73.992"><path d="M0 74.43V-73.555h74.395V74.429h-11.32l-3.68-6.35H15l-3.681 6.35z" style="fill:#a1a1a1;fill-opacity:1;stroke-width:2.15008;paint-order:markers stroke fill;stop-color:#000" transform="matrix(1 0 0 -1 0 74.43)"/><path d="M3.351 70.759V-69.884h67.693V70.76h-4.088l-4.233-6.35h-51.05l-4.234 6.35z" style="fill:#e0e0e0;fill-opacity:1;stroke-width:1.97626;paint-order:markers stroke fill;stop-color:#000" transform="matrix(1 0 0 -1 0 74.43)"/><path d="M3.351 59.492h67.693V48.755H3.351ZM3.351 38.018h67.693V27.281H3.351ZM3.351 16.544h67.693V5.807H3.351ZM3.351-4.93h67.693v-10.737H3.351ZM3.351-26.404h67.693v-10.738H3.351ZM3.351-47.879h67.693v-10.737H3.351Z" style="fill:#fff;stroke-width:2.96972;paint-order:markers stroke fill;stop-color:#000" transform="matrix(1 0 0 -1 0 74.43)"/></svg>
